svg/boy_1525y_positive.svg

<svg width="48" height="48" viewBox="0 0 48 48" fill="none" xmlns="http://www.w3.org/2000/svg">
<path fill-rule="evenodd" clip-rule="evenodd" d="M23.9217 4.6738C15.0198 4.6984 13.6358 9.87683 13.7108 20.4586C13.7218 21.1666 13.7498 22.8516 15.2988 23.0896C15.4548 25.3375 16.1548 27.4315 17.7658 28.4445C20.3897 30.0975 21.6917 31.1835 24.0017 31.2555C25.5837 31.2605 27.6076 29.8305 29.7906 28.4645C31.4636 27.4175 32.4316 25.3925 32.6836 23.2046C34.2675 23.2996 33.9855 21.4926 34.1185 20.4586C34.1695 8.60375 32.6696 4.6828 23.9587 4.6738C23.9447 4.6735 23.9347 4.6736 23.9217 4.6736V4.6738ZM18.9527 11.7169C19.9087 12.6769 21.3637 13.4779 22.9997 14.0589C23.2867 14.1599 22.6007 12.2149 22.8957 12.3029C23.2567 12.4099 24.6017 14.5459 24.9707 14.6309C25.2987 14.7069 24.6617 12.9049 24.9917 12.9629C25.3657 13.0279 26.7046 14.9499 27.0736 14.9899C27.3736 15.0229 26.8796 14.0049 27.1736 14.0209C27.4836 14.0389 28.5806 15.0879 28.8806 15.0859C29.1856 15.0829 28.9456 14.3169 29.2356 14.2929C29.5746 14.2649 30.4386 14.9779 30.7496 14.9199C30.9986 14.8729 30.5906 14.1679 30.8176 14.1019C31.0266 14.0399 31.4796 14.2239 31.8586 14.3359C31.9026 16.7908 31.9026 19.2478 31.9176 21.7028C31.9176 24.0578 31.0106 26.3877 29.2356 27.4977C27.2616 28.7327 25.4327 30.0217 24.0017 30.0177C21.9127 29.9577 20.7367 28.9727 18.3627 27.4787C16.6858 26.4227 16.1018 24.0708 16.1018 21.7028V15.5329C16.2668 15.1469 16.4608 14.9249 16.6758 14.8139C16.8048 14.7479 17.4618 13.2569 17.5998 13.2319C17.7648 13.2029 17.4138 14.6439 17.5798 14.6069C18.1667 14.4769 18.7167 14.0659 18.9527 11.7169ZM20.2297 17.1168C19.9651 17.117 19.7113 17.2222 19.5242 17.4093C19.3371 17.5964 19.2319 17.8502 19.2317 18.1148C19.2319 18.3795 19.3371 18.6332 19.5242 18.8204C19.7113 19.0075 19.9651 19.1127 20.2297 19.1128C20.4945 19.1129 20.7485 19.0079 20.9359 18.8207C21.1232 18.6336 21.2286 18.3796 21.2287 18.1148C21.2286 17.85 21.1232 17.5961 20.9359 17.409C20.7485 17.2218 20.4945 17.1167 20.2297 17.1168ZM27.7266 17.1168C27.5954 17.1167 27.4655 17.1423 27.3442 17.1924C27.2229 17.2424 27.1127 17.3159 27.0198 17.4086C26.9269 17.5013 26.8532 17.6114 26.8029 17.7325C26.7526 17.8537 26.7267 17.9836 26.7266 18.1148C26.7267 18.246 26.7526 18.3759 26.8029 18.4971C26.8532 18.6183 26.9269 18.7284 27.0198 18.8211C27.1127 18.9137 27.2229 18.9872 27.3442 19.0373C27.4655 19.0873 27.5954 19.113 27.7266 19.1128C27.9913 19.1127 28.245 19.0075 28.4322 18.8204C28.6193 18.6332 28.7245 18.3795 28.7246 18.1148C28.7245 17.8502 28.6193 17.5964 28.4322 17.4093C28.245 17.2222 27.9913 17.117 27.7266 17.1168ZM23.8887 21.7268C23.6657 21.7313 23.4589 21.7528 23.309 21.787C23.159 21.8212 23.0765 21.8657 23.0777 21.9118C23.077 21.9362 23.0998 21.9604 23.1448 21.9829C23.1898 22.0055 23.256 22.026 23.3398 22.0433C23.4235 22.0606 23.5231 22.0743 23.6327 22.0837C23.7424 22.093 23.86 22.0978 23.9787 22.0978C24.0973 22.0978 24.2148 22.093 24.3243 22.0836C24.4338 22.0742 24.5333 22.0605 24.6169 22.0432C24.7006 22.026 24.7667 22.0054 24.8117 21.9829C24.8566 21.9603 24.8794 21.9362 24.8787 21.9118C24.8787 21.8875 24.8555 21.8634 24.8103 21.841C24.7651 21.8185 24.6988 21.7981 24.6152 21.781C24.5316 21.7638 24.4324 21.7502 24.3232 21.7409C24.214 21.7316 24.0969 21.7268 23.9787 21.7268C23.9487 21.7265 23.9187 21.7265 23.8887 21.7268ZM23.9527 24.9257C23.0776 24.928 22.2588 24.9424 21.6619 24.966C21.0651 24.9896 20.7347 25.0206 20.7377 25.0527C20.7373 25.0694 20.8265 25.0859 21.0003 25.1013C21.174 25.1168 21.4289 25.1308 21.7503 25.1426C22.0718 25.1544 22.4535 25.1637 22.8736 25.1701C23.2937 25.1765 23.744 25.1798 24.1987 25.1797C24.6532 25.1797 25.1033 25.1765 25.5231 25.1701C25.943 25.1637 26.3245 25.1543 26.6457 25.1425C26.9669 25.1307 27.2216 25.1167 27.3953 25.1013C27.5689 25.0859 27.6581 25.0694 27.6576 25.0527C27.6581 25.0361 27.5689 25.0196 27.3953 25.0042C27.2216 24.9887 26.9669 24.9747 26.6457 24.963C26.3245 24.9512 25.943 24.9418 25.5231 24.9354C25.1033 24.929 24.6532 24.9257 24.1987 24.9257C24.1167 24.9256 24.0346 24.9256 23.9527 24.9257ZM3.99792 34.0156V44.0155H43.9974V34.0156H3.99792ZM23.0307 35.3456C23.7637 35.3456 24.3317 35.5206 24.7357 35.8726C25.1427 36.2246 25.3477 36.7216 25.3477 37.3626C25.3477 37.7146 25.2567 38.0726 25.0737 38.4376C24.8917 38.8016 24.5777 39.2276 24.1347 39.7126L22.5177 41.4175H25.5757V42.5565H20.7007V41.5895L23.0017 39.1366C23.3177 38.7916 23.5507 38.4896 23.7007 38.2316C23.8537 37.9746 23.9297 37.7306 23.9297 37.4996C23.9297 37.1836 23.8507 36.9366 23.6907 36.7576C23.5317 36.5746 23.3037 36.4836 23.0077 36.4836C22.6887 36.4836 22.4357 36.5946 22.2497 36.8156C22.0677 37.0346 21.9767 37.3226 21.9767 37.6816H20.5607C20.5607 37.2476 20.6617 36.8516 20.8667 36.4936C21.0757 36.1356 21.3677 35.8556 21.7457 35.6536C22.1237 35.4486 22.5527 35.3456 23.0307 35.3456ZM8.60187 35.4336H8.75227V42.5565H7.34008V37.1126L5.6546 37.6366V36.4876L8.60187 35.4336ZM11.6882 35.4426H15.6742V36.6206H12.8462L12.6702 38.1496C13.0052 37.9706 13.3622 37.8806 13.7402 37.8806C14.4182 37.8806 14.9482 38.0916 15.3322 38.5116C15.7162 38.9316 15.9082 39.5196 15.9082 40.2746C15.9082 40.7345 15.8112 41.1465 15.6152 41.5115C15.4232 41.8725 15.1472 42.1535 14.7852 42.3545C14.4242 42.5535 13.9982 42.6535 13.5062 42.6535C13.0762 42.6535 12.6772 42.5665 12.3092 42.3945C11.9412 42.2185 11.6492 41.9735 11.4342 41.6575C11.2222 41.3415 11.1112 40.9815 11.0982 40.5775H12.4942C12.5232 40.8735 12.6272 41.1045 12.8032 41.2705C12.9822 41.4335 13.2132 41.5155 13.5002 41.5155C13.8192 41.5155 14.0662 41.4015 14.2382 41.1735C14.4112 40.9425 14.4982 40.6165 14.4982 40.1966C14.4982 39.7926 14.3982 39.4826 14.1992 39.2676C14.0012 39.0526 13.7182 38.9446 13.3542 38.9446C13.0182 38.9446 12.7472 39.0326 12.5392 39.2086L12.4022 39.3356L11.2772 39.0586L11.6882 35.4426ZM27.066 35.4426H31.053V36.6206H28.225L28.049 38.1496C28.384 37.9706 28.741 37.8806 29.119 37.8806C29.797 37.8806 30.327 38.0916 30.711 38.5116C31.095 38.9316 31.287 39.5196 31.287 40.2746C31.287 40.7345 31.19 41.1465 30.994 41.5115C30.802 41.8725 30.526 42.1535 30.164 42.3545C29.803 42.5535 29.377 42.6535 28.885 42.6535C28.455 42.6535 28.056 42.5665 27.688 42.3945C27.319 42.2185 27.027 41.9735 26.812 41.6575C26.601 41.3415 26.488 40.9815 26.475 40.5775H27.873C27.902 40.8735 28.004 41.1045 28.18 41.2705C28.359 41.4335 28.592 41.5155 28.879 41.5155C29.198 41.5155 29.445 41.4015 29.617 41.1735C29.79 40.9425 29.875 40.6165 29.875 40.1966C29.875 39.7926 29.777 39.4826 29.578 39.2676C29.379 39.0526 29.097 38.9446 28.732 38.9446C28.397 38.9446 28.124 39.0326 27.916 39.2086L27.779 39.3356L26.656 39.0586L27.066 35.4426ZM31.717 35.4426H33.324L34.7949 38.6476L36.2749 35.4426H37.8769L35.5429 39.9766V42.5565H34.0529V39.9766L31.717 35.4426ZM40.1779 37.1716C40.8489 37.1716 41.3849 37.3306 41.7849 37.6456C42.1888 37.9616 42.3908 38.3716 42.3908 38.8766H40.9799C40.9799 38.6746 40.9129 38.5086 40.7829 38.3786C40.6529 38.2446 40.4509 38.1796 40.1739 38.1796C39.9359 38.1796 39.7509 38.2316 39.6209 38.3396C39.4909 38.4466 39.4259 38.5836 39.4259 38.7496C39.4259 38.9056 39.4999 39.0326 39.6459 39.1306C39.7959 39.2246 40.0469 39.3086 40.3979 39.3806C40.7499 39.4486 41.0459 39.5266 41.2869 39.6146C42.0328 39.8886 42.4058 40.3625 42.4058 41.0365C42.4058 41.5185 42.1988 41.9085 41.7849 42.2085C41.3719 42.5045 40.8379 42.6535 40.1839 42.6535C39.7409 42.6535 39.3469 42.5755 39.0019 42.4195C38.6599 42.2595 38.3909 42.0425 38.1949 41.7695C37.9999 41.4925 37.9019 41.1935 37.9019 40.8745H39.2399C39.2529 41.1255 39.3469 41.3175 39.5199 41.4505C39.6919 41.5845 39.9229 41.6515 40.2129 41.6515C40.4829 41.6515 40.6849 41.6025 40.8219 41.5015C40.9619 41.3975 41.0329 41.2615 41.0329 41.0955C41.0329 40.9225 40.9459 40.7865 40.7729 40.6885C40.6039 40.5875 40.3309 40.4995 39.9529 40.4216C38.6959 40.1576 38.0679 39.6226 38.0679 38.8176C38.0679 38.3486 38.2609 37.9586 38.6479 37.6456C39.0389 37.3306 39.5489 37.1716 40.1779 37.1716ZM16.8672 38.9406H19.6171V40.0796H16.8672V38.9406Z" fill="#333333"/>
</svg>

<?xml version="1.0" encoding="UTF-8" standalone="no"?>
<!-- Created with Inkscape (http://www.inkscape.org/) -->
<svg id="svg8" xmlns:rdf="http://www.w3.org/1999/02/22-rdf-syntax-ns#" xmlns="http://www.w3.org/2000/svg" height="48" viewBox="0 0 12.7 12.7" width="48" version="1.1" xmlns:cc="http://creativecommons.org/ns#" xmlns:dc="http://purl.org/dc/elements/1.1/">
 <title id="title4753">UIO-icon</title>
 <metadata id="metadata5">
  <rdf:RDF>
   <cc:Work rdf:about="">
    <dc:format>image/svg+xml</dc:format>
    <dc:type rdf:resource="http://purl.org/dc/dcmitype/StillImage"/>
    <dc:title>UIO-icon</dc:title>
    <dc:creator>
     <cc:Agent>
      <dc:title>Joaquín Urbano</dc:title>
     </cc:Agent>
    </dc:creator>
    <dc:rights>
     <cc:Agent>
      <dc:title>GPL</dc:title>
     </cc:Agent>
    </dc:rights>
   </cc:Work>
  </rdf:RDF>
 </metadata>
 <path id="rect4852-7" d="m23.922 4.6738c-8.902 0.0246-10.286 5.2031-10.211 15.785 0.011 0.708 0.039 2.393 1.588 2.631 0.156 2.248 0.856 4.342 2.467 5.355 2.624 1.653 3.926 2.739 6.236 2.811 1.582 0.005 3.606-1.425 5.789-2.791 1.673-1.047 2.641-3.072 2.893-5.26 1.584 0.095 1.302-1.712 1.435-2.746 0.051-11.855-1.449-15.776-10.16-15.785-0.014-0.0003-0.024-0.0002-0.037-0.0002zm-4.969 7.0432c0.956 0.96 2.411 1.761 4.047 2.342 0.287 0.101-0.399-1.844-0.104-1.756 0.361 0.107 1.706 2.243 2.075 2.328 0.328 0.076-0.309-1.726 0.021-1.668 0.374 0.065 1.713 1.987 2.082 2.027 0.3 0.033-0.194-0.985 0.1-0.969 0.31 0.018 1.407 1.067 1.707 1.065 0.305-0.003 0.065-0.769 0.355-0.793 0.339-0.028 1.203 0.685 1.514 0.627 0.249-0.047-0.159-0.752 0.068-0.818 0.209-0.062 0.662 0.122 1.041 0.234 0.044 2.455 0.044 4.912 0.059 7.367 0 2.355-0.907 4.685-2.682 5.795-1.974 1.235-3.803 2.524-5.234 2.52-2.089-0.06-3.265-1.045-5.639-2.539-1.677-1.056-2.261-3.408-2.261-5.776v-6.17c0.165-0.386 0.359-0.608 0.574-0.719 0.129-0.066 0.786-1.557 0.924-1.582 0.165-0.029-0.186 1.412-0.02 1.375 0.587-0.13 1.137-0.541 1.373-2.89zm1.277 5.4a0.99855 0.99855 0 0 0 -0.998 0.998 0.99855 0.99855 0 0 0 0.998 0.998 0.99855 0.99855 0 0 0 0.999 -0.998 0.99855 0.99855 0 0 0 -0.999 -0.998zm7.497 0a0.99855 0.99855 0 0 0 -1 0.998 0.99855 0.99855 0 0 0 1 0.998 0.99855 0.99855 0 0 0 0.998 -0.998 0.99855 0.99855 0 0 0 -0.998 -0.998zm-3.838 4.61a0.89992 0.18492 0 0 0 -0.811 0.185 0.89992 0.18492 0 0 0 0.901 0.186 0.89992 0.18492 0 0 0 0.9 -0.186 0.89992 0.18492 0 0 0 -0.9 -0.185 0.89992 0.18492 0 0 0 -0.09 0zm0.064 3.199a3.4594 0.12688 0 0 0 -3.215 0.127 3.4594 0.12688 0 0 0 3.461 0.127 3.4594 0.12688 0 0 0 3.459 -0.127 3.4594 0.12688 0 0 0 -3.459 -0.127 3.4594 0.12688 0 0 0 -0.246 0zm-19.955 9.09v10h40v-10h-40zm19.033 1.33c0.733 0 1.301 0.175 1.705 0.527 0.407 0.352 0.612 0.849 0.612 1.49 0 0.352-0.091 0.71-0.274 1.075-0.182 0.364-0.496 0.79-0.939 1.275l-1.617 1.705h3.058v1.139h-4.875v-0.967l2.301-2.453c0.316-0.345 0.549-0.647 0.699-0.905 0.153-0.257 0.229-0.501 0.229-0.732 0-0.316-0.079-0.563-0.239-0.742-0.159-0.183-0.387-0.274-0.683-0.274-0.319 0-0.572 0.111-0.758 0.332-0.182 0.219-0.273 0.507-0.273 0.866h-1.416c0-0.434 0.101-0.83 0.306-1.188 0.209-0.358 0.501-0.638 0.879-0.84 0.378-0.205 0.807-0.308 1.285-0.308zm-14.429 0.088h0.1504v7.123h-1.4122v-5.444l-1.6855 0.524v-1.149l2.9473-1.054zm3.0864 0.009h3.986v1.178h-2.828l-0.176 1.529c0.335-0.179 0.692-0.269 1.07-0.269 0.678 0 1.208 0.211 1.592 0.631s0.576 1.008 0.576 1.763c0 0.46-0.097 0.872-0.293 1.237-0.192 0.361-0.468 0.642-0.83 0.843-0.361 0.199-0.787 0.299-1.279 0.299-0.43 0-0.829-0.087-1.197-0.259-0.368-0.176-0.66-0.421-0.875-0.737-0.212-0.316-0.323-0.676-0.336-1.08h1.396c0.029 0.296 0.133 0.527 0.309 0.693 0.179 0.163 0.41 0.245 0.697 0.245 0.319 0 0.566-0.114 0.738-0.342 0.173-0.231 0.26-0.557 0.26-0.977 0-0.404-0.1-0.714-0.299-0.929-0.198-0.215-0.481-0.323-0.845-0.323-0.336 0-0.607 0.088-0.815 0.264l-0.137 0.127-1.125-0.277 0.411-3.616zm15.378 0h3.987v1.178h-2.828l-0.176 1.529c0.335-0.179 0.692-0.269 1.07-0.269 0.678 0 1.208 0.211 1.592 0.631s0.576 1.008 0.576 1.763c0 0.46-0.097 0.872-0.293 1.237-0.192 0.361-0.468 0.642-0.83 0.843-0.361 0.199-0.787 0.299-1.279 0.299-0.43 0-0.829-0.087-1.197-0.259-0.369-0.176-0.661-0.421-0.876-0.737-0.211-0.316-0.324-0.676-0.337-1.08h1.398c0.029 0.296 0.131 0.527 0.307 0.693 0.179 0.163 0.412 0.245 0.699 0.245 0.319 0 0.566-0.114 0.738-0.342 0.173-0.231 0.258-0.557 0.258-0.977 0-0.404-0.098-0.714-0.297-0.929s-0.481-0.323-0.846-0.323c-0.335 0-0.608 0.088-0.816 0.264l-0.137 0.127-1.123-0.277 0.41-3.616zm4.651 0h1.607l1.471 3.205 1.48-3.205h1.602l-2.334 4.534v2.58h-1.49v-2.58l-2.336-4.534zm8.461 1.729c0.671 0 1.207 0.159 1.607 0.474 0.404 0.316 0.606 0.726 0.606 1.231h-1.411c0-0.202-0.067-0.368-0.197-0.498-0.13-0.134-0.332-0.199-0.609-0.199-0.238 0-0.423 0.052-0.553 0.16-0.13 0.107-0.195 0.244-0.195 0.41 0 0.156 0.074 0.283 0.22 0.381 0.15 0.094 0.401 0.178 0.752 0.25 0.352 0.068 0.648 0.146 0.889 0.234 0.746 0.274 1.119 0.748 1.119 1.422 0 0.482-0.207 0.872-0.621 1.172-0.413 0.296-0.947 0.445-1.601 0.445-0.443 0-0.837-0.078-1.182-0.234-0.342-0.16-0.611-0.377-0.807-0.65-0.195-0.277-0.293-0.576-0.293-0.895h1.338c0.013 0.251 0.107 0.443 0.28 0.576 0.172 0.134 0.403 0.201 0.693 0.201 0.27 0 0.472-0.049 0.609-0.15 0.14-0.104 0.211-0.24 0.211-0.406 0-0.173-0.087-0.309-0.26-0.407-0.169-0.101-0.442-0.189-0.82-0.267-1.257-0.264-1.885-0.799-1.885-1.604 0-0.469 0.193-0.859 0.58-1.172 0.391-0.315 0.901-0.474 1.53-0.474zm-23.311 1.769h2.75v1.139h-2.75v-1.139z" fill-rule="evenodd" transform="scale(.26458)" stroke-width="3.7795" fill="#333"/>
</svg>
